X: 2
T: Gypsy, The
T: Dan Sullivan's Favourite / Favorite
M: 4/4
L: 1/8
R: hornpipe
K: Gmaj
|: DF |\ 
G2 DG B2 AF | GBdf gBdf | gdBd ecAG | FGAB cAFD |
G2 DG BAGF | G2 df gBdf | g2 Bd e2 cA | G2 B2 G2 :|
K: Dmaj
|: FG |\
ABAG F2 de | f2 ec d2 cd | eA^GA =gfed | eA^GA =gfec |
A2 AG FAde | fedc defg | a2 ge f2 ec | dAcA d2 :|
